Obsidian-SemiLight/actions/22s/view-media-title.svg

<svg viewBox="0 0 22 22" xmlns="http://www.w3.org/2000/svg"><path d="m5 3v1 1h-2v3h2v6h-2v3h2v2h1 13v-1-14-1zm1 1h12v2h-12v-1zm0 3h12v4 7h-12z" fill="#4d4d4d"/></svg>

<svg xmlns="http://www.w3.org/2000/svg" viewBox="0 0 22 22">
  <defs id="defs3051">
    <style type="text/css" id="current-color-scheme">
      .ColorScheme-Text {
        color:#4d4d4d;
      }
      </style>
  </defs>
 <path 
    style="fill:currentColor;fill-opacity:1;stroke:none" 
    d="M 5 3 L 5 4 L 5 5 L 3 5 L 3 8 L 5 8 L 5 14 L 3 14 L 3 17 L 5 17 L 5 19 L 6 19 L 19 19 L 19 18 L 19 4 L 19 3 L 5 3 z M 6 4 L 18 4 L 18 6 L 6 6 L 6 5 L 6 4 z M 6 7 L 18 7 L 18 11 L 18 18 L 6 18 L 6 7 z "
	class="ColorScheme-Text"
    />  
</svg>
